src/svg/12/explicit_12.svg

<svg fill="none" height="12" viewBox="0 0 12 12" width="12" xmlns="http://www.w3.org/2000/svg"><g fill="currentColor"><path d="m8 9h-3v-5h3v1h-2v1h2v1h-2v1h2z"/><path clip-rule="evenodd" d="m1 3.5c0-1.38071 1.11929-2.5 2.5-2.5h6c1.3807 0 2.5 1.11929 2.5 2.5v6c0 1.3807-1.1193 2.5-2.5 2.5h-6c-1.38071 0-2.5-1.1193-2.5-2.5zm2.5-1.5h6c.8284 0 1.5.67157 1.5 1.5v6c0 .8284-.6716 1.5-1.5 1.5h-6c-.82843 0-1.5-.6716-1.5-1.5v-6c0-.82843.67157-1.5 1.5-1.5z" fill-rule="evenodd"/></g></svg>

<svg width="12" height="12" viewBox="0 0 12 12" fill="none" xmlns="http://www.w3.org/2000/svg">
<path d="M8 9H5V4H8V5H6V6H8V7H6V8H8V9Z" fill="currentColor"/>
<path fill-rule="evenodd" clip-rule="evenodd" d="M1 3.5C1 2.11929 2.11929 1 3.5 1H9.5C10.8807 1 12 2.11929 12 3.5V9.5C12 10.8807 10.8807 12 9.5 12H3.5C2.11929 12 1 10.8807 1 9.5V3.5ZM3.5 2H9.5C10.3284 2 11 2.67157 11 3.5V9.5C11 10.3284 10.3284 11 9.5 11H3.5C2.67157 11 2 10.3284 2 9.5V3.5C2 2.67157 2.67157 2 3.5 2Z" fill="currentColor"/>
</svg>
